X: 1
T: String Quartet in B\b Major opus 55 no 3 mvt 2
C: Franz Joseph Haydn
%%abc-version 2.0
%%abcx-abcm2ps-target-version 5.9.1 (29 Sep 2008)
%%abc-creator hum2abc beta
%%abcx-conversion-date 2021/02/14 14:38:16
%%abc-copyright Copyright (c) 1994, 2000 Center for Computer Assisted Research in the Humanities
%%abc-edited-by Walter Hewlett
%%abcx-initial-encoding-date 1994/11/09
%%gracespace 0 6 6
%%humdrum-veritas 202134443
%%humdrum-veritas-data 949437208
%%linebreak <none>
%%barnumbers 0
L: 1/16
M: 2/4
N: Derived from op55n3-02.krn
Q: "Adagio ma non troppo"
%%staves [1 2 3 4]
V: 1 clef=treble
V: 2 clef=treble
V: 3 clef=alto
V: 4 clef=bass
K: Eb
[V:1]B2x//x//x//x//x//x//x//x//x//x//x//x//x//x//x//x//x//x//x//x//x//x//x//x//[I:setbarnb1]|
[V:2]z2x//x//x//x//x//x//x//x//x//x//x//x//x//x//x//x//x//x//x//x//x//x//x//x//|
[V:3]z2x//x//x//x//x//x//x//x//x//x//x//x//x//x//x//x//x//x//x//x//x//x//x//x//|
[V:4]z2x//x//x//x//x//x//x//x//x//x//x//x//x//x//x//x//x//x//x//x//x//x//x//x//|
[V:1]e4 d>e!beambr1!!trill!e3/d//e// |
[V:2]B8 |
[V:3]G4 A2G2 |
[V:4]E4 F2E2 |
[V:1].f2.f2 z2B2 |
[V:2].B2.B2 z4 |
[V:3].F2.F2 z4 |
[V:4].D2.D2 z4 |
[V:1]g4 f>g!beambr1!!trill!g3/f//g// |
[V:2]B8 |
[V:3]E4 F2E2 |
[V:4]E4 D2_D2 |
[V:1].a2.a2 z2c'2 |
[V:2].A2.A2 z2E2 |
[V:3].E2.E2 z2C2 |
[V:4].C2.C2 z2A,2 |
[V:1]d3e/f/ e2B2 |
[V:2]F3G/A/ B2E2 |
[V:3]B,6 B,2 |
[V:4]A,4 G,2G,2 |
[V:1]B6 AG |
[V:2]D>=E!beambr1!!trill!E3/D//E// F3_E |
[V:3]A,2B,2 C3A, |
[V:4]F,2G,2 A,4- |
[V:1]F2G3/F//G// A2G/F/G/A/ |
[V:2]D2E3/D//E// F2E/D/E/F/ |
[V:3]B,8- |
[V:4]A,2G,2 D,2E,2 |
[V:1]G4 F2|
[V:2]E4 D2|
[V:3]B,4 z2|
[V:4]B,,2B,2 B,,2|
[V:1]f2x//x//x//x//x//x//x//x//x//x//x//x//x//x//x//x//x//x//x//x//x//x//x//x//[I:setbarnb9] |
[V:2]z2x//x//x//x//x//x//x//x//x//x//x//x//x//x//x//x//x//x//x//x//x//x//x//x//|
[V:3]z2x//x//x//x//x//x//x//x//x//x//x//x//x//x//x//x//x//x//x//x//x//x//x//x//|
[V:4]z2x//x//x//x//x//x//x//x//x//x//x//x//x//x//x//x//x//x//x//x//x//x//x//x//|
[V:1]B4- B^fge |
[V:2]z2B/A/G/A/ G2z2 |
[V:3]z2G/F/E/F/ E2z2 |
[V:4]z2D2 E2z2 |
[V:1]c6 =f2 |
[V:2]z2c/B/=A/B/ A2B2 |
[V:3]z2=A/G/F/G/ F2F2 |
[V:4]z2=E2 F2D2 |
[V:1]f8- |
[V:2]=A>=B!beambr1!!trill!B3/A//B// c2_B2 |
[V:3]E2F2 G2F2 |
[V:4]C2D2 E2D2 |
[V:1]f6 ed |
[V:2]=A>=B!beambr1!!trill!B3/A//B// c3B |
[V:3]E2F2 G3A |
[V:4]C2D2 E3F |
[V:1].c!trill!cde B2c3/B/ |
[V:2].cc=Bc D2E2 |
[V:3].GGFE F2=A,3/B,/ |
[V:4].EEDC F,4 |
[V:1]B4- B!trill!B_dc |
[V:2]D2B/c/B/A/ G4 |
[V:3]B,2G/A/G/F/ =E4 |
[V:4]B,,8- |
[V:1]B=A_Af AGeG |
[V:2]F4 E4 |
[V:3]F2D2 B,3C |
[V:4]B,,4- B,,3=A,, |
[V:1]G2F2 z2B2 |
[V:2]E2D2 z4 |
[V:3]B,4 z4 |
[V:4]B,,2B,2 B,,2z2 |
[V:1]e4 d>e!beambr1!!trill!e3/d//e// |
[V:2]B8 |
[V:3]G4 A2G2 |
[V:4]E4 F2E2 |
[V:1].f2.f2 z2B2 |
[V:2].B2.B2 z4 |
[V:3].F2.F2 z4 |
[V:4].D2.D2 z4 |
[V:1]g4 f>g!beambr1!!trill!g3/f//g// |
[V:2]B8 |
[V:3]E4 F2E2 |
[V:4]E4 D2_D2 |
[V:1].a2.a2 z2c'2 |
[V:2]A2A2 z2E2 |
[V:3].E2.E2 z2C2 |
[V:4].C2.C2 z2A,2 |
[V:1]d3e/f/ e2B2 |
[V:2]F3G/A/ B2E2 |
[V:3]B,6 B,2 |
[V:4]A,4 G,2G,2 |
[V:1]B4 =A2_A2- |
[V:2]D2_D2 C2_C2 |
[V:3]A,2G,2 _G,2F,2 |
[V:4]F,2=E,2 _E,2D,2 |
[V:1]AGFc E2F3/E/ |
[V:2]B,2=C2 G,2A,2 |
[V:3]E,6 D,2 |
[V:4]E,2A,,2 B,,4 |
[V:1]E4 z2|
[V:2]G,4 z2|
[V:3]E,4 z2|
[V:4]E,2B,,2 E,,2|
[V:1]z2x//x//x//x//x//x//x//x//x//x//x//x//x//x//x//x//x//x//x//x//x//x//x//x//[I:setbarnb25] |
[V:2]B2x//x//x//x//x//x//x//x//x//x//x//x//x//x//x//x//x//x//x//x//x//x//x//x//|
[V:3]z2x//x//x//x//x//x//x//x//x//x//x//x//x//x//x//x//x//x//x//x//x//x//x//x//|
[V:4]z2x//x//x//x//x//x//x//x//x//x//x//x//x//x//x//x//x//x//x//x//x//x//x//x//|
[V:1]z8 |
[V:2]e4 d>e!beambr1!!trill!e3/d//e// |
[V:3]B8 &G4 A2G2 |
[V:4]E4 F2E2 |
[V:1]z/b/=a/b/!beambr1!a/b/c'/b/ _a/g/f/e/!beambr1!d/c/B/A/ |
[V:2].f2.f2 z2B2 |
[V:3].[B2F2].[B2F2] z4 |
[V:4].D2.D2 z4 |
[V:1]G4 z4 |
[V:2]g4 f>g!beambr1!!trill!g3/f//g// |
[V:3]B8 |
[V:4]E4 D2_D2 |
[V:1]z/e'/d'/e'/!beambr1!d'/e'/f'/e'/ d'/c'/b/a/!beambr1!g/f/a/c'/ |
[V:2].a2.a2 z2c2 |
[V:3].E2.E2 z2F2 |
[V:4].C2.C2 z2A,2 |
[V:1]e/d/c'/b/!beambr1!e/d/c'/b/ a/g/f/e/!beambr1!d/e/f/e/ |
[V:2][B4D4] [B2E2]E2 |
[V:3]F4 G2B,2 |
[V:4]A,4 G,2G,2 |
[V:1]c/B/.B/.B/!beambr1!_d/c/.c/.c/ d/c/d/c/!beambr1!B/A/G/F/ |
[V:2]D2=E2 F4 |
[V:3]A,2B,2 C4 |
[V:4]F,2G,2 A,4- |
[V:1]E/=D/c/B/!beambr1!F/E/c/B/ =A/B/_A/f/!beambr1!A/G/e/G/ |
[V:2]B,6- B,E |
[V:3]F,2E,2 F2E2 |
[V:4]A,2G,2 D,2E,2 |
[V:1]B3A//G//F//G// F2|
[V:2]G3F//E//D//E// D2|
[V:3]B,4 z2|
[V:4]B,,2B,2 B,,2|
[V:1]f2x//x//x//x//x//x//x//x//x//x//x//x//x//x//x//x//x//x//x//x//x//x//x//x//[I:setbarnb33] |
[V:2]z2x//x//x//x//x//x//x//x//x//x//x//x//x//x//x//x//x//x//x//x//x//x//x//x//|
[V:3]z2x//x//x//x//x//x//x//x//x//x//x//x//x//x//x//x//x//x//x//x//x//x//x//x//|
[V:4]z2x//x//x//x//x//x//x//x//x//x//x//x//x//x//x//x//x//x//x//x//x//x//x//x//|
[V:1]B4- B/^f/g/f/!beambr1!g/f/g/e/ |
[V:2]F/G/A/G/!beambr1!A/G/A/^F/ G2z2 |
[V:3]D/E/F/E/!beambr1!F/E/F/D/ E2z2 |
[V:4]z2B,,2 E,,2z2 |
[V:1]c4- c/=f/=e/f/!beambr1!e/f/g/f/ |
[V:2]G/=A/B/A/!beambr1!B/A/B/G/ A2B2 |
[V:3]=E/F/G/F/!beambr1!G/F/G/E/ F2F2 |
[V:4]z2C,2 F,,2D2 |
[V:1]f8- |
[V:2]=A/B/A/c/!beambr1!=B/c/B/d/ d/c/.c/.c/!beambr1!c/_B/.B/.B/ |
[V:3]E2F2 G2F2 |
[V:4]C2D2 E2D2 |
[V:1]f6 f/e/e/d/ |
[V:2]=A/B/A/c/!beambr1!=B/c/B/d/ d/c/.c/.c/B2 |
[V:3]E2F2 G2A2 |
[V:4]C2D2 E2F2 |
[V:1]d/c/=B/c/!beambr1!d/e/^f/g/ _B2c3/B/ |
[V:2]c2z2 F2E2 |
[V:3]G4 D2=A,2 |
[V:4]E4 F,2F,2 |
[V:1]B4- B/=A/B/c/!beambr1!e/_d/c/B/ |
[V:2]_D2z2 C4- |
[V:3]z/C/_D/C/!beambr1!D/C/B,/A,/ G,4 |
[V:4]z/=A,,/B,,/A,,/!beambr1!B,,/_A,,/G,,/F,,/ =E,,4 |
[V:1]B/=A/B/A/!beambr1!B/_A/f/A/ A/G/A/B/!beambr1!=B/c/A/F/ |
[V:2]C2B,4 A,C |
[V:3]F,2F2 E3C/A,/ |
[V:4]F,,2D,,2 E,,2A,,2 |
[V:1]E3F/E/ D2z2 |
[V:2]B,2z2 z2B2 |
[V:3]G,3A,/G,/ F,2z2 |
[V:4]B,,2B,2 B,,2z2 |
[V:1]z8 |
[V:2]e4 d>e!beambr1!!trill!e3/d//e// |
[V:3]B8 &G4 A2G2 |
[V:4]E4 F2E2 |
[V:1]z/b/=a/b/!beambr1!a/b/c'/b/ _a/g/f/e/!beambr1!d/c/B/A/ |
[V:2].f2.f2 z2B2 |
[V:3].[B2F2].[B2F2] z4 |
[V:4].D2.D2 z4 |
[V:1]G4 z4 |
[V:2]g4 f>g!beambr1!!trill!g3/f//g// |
[V:3]B8 |
[V:4]E4 D2_D2 |
[V:1]z/e'/d'/e'/!beambr1!d'/e'/f'/e'/ d'/c'/b/a/!beambr1!g/f/a/c'/ |
[V:2].a2.a2 z2c2 |
[V:3].E2.E2 z2F2 |
[V:4].C2.C2 z2A,2 |
[V:1]e/d/c'/b/!beambr1!e/d/c'/b/ a/g/f/e/!beambr1!d/e/f/e/ |
[V:2][B4D4] [B2E2]E2 |
[V:3]F4 G2B,2 |
[V:4]A,4 G,2G,2 |
[V:1]c/B/.B/.B/!beambr1!g/B/.B/.B/ B/=A/.A/.A/!beambr1!f/_A/.A/.A/ |
[V:2]D2_D2 C2_C2 |
[V:3]A,2G,2 _G,2F,2 |
[V:4]F,2=E,2 _E,2D,2 |
[V:1]A/G/^F/G/!beambr1!=E/=F/A/c/ _E2F3/E/ |
[V:2]B,2=C2 G,2A,2 |
[V:3]E,6 D,2 |
[V:4]E,2A,,2 B,,4 |
[V:1]E4 z2:|]
[V:2]G,4 z2:|]
[V:3]E,4 z2:|]
[V:4]E,2B,,2 E,,2:|]
[V:1]z2x//x//x//x//x//x//x//x//x//x//x//x//x//x//x//x//x//x//x//x//x//x//x//x//[I:setbarnb49] |
[V:2]B,2x//x//x//x//x//x//x//x//x//x//x//x//x//x//x//x//x//x//x//x//x//x//x//x//|
[V:3]z2x//x//x//x//x//x//x//x//x//x//x//x//x//x//x//x//x//x//x//x//x//x//x//x//|
[V:4]z2x//x//x//x//x//x//x//x//x//x//x//x//x//x//x//x//x//x//x//x//x//x//x//x//|
[V:1]z8 |
[V:2]E4 D>E!beambr1!!trill!E3/D//E// |
[V:3]z2E,2 B,4 |
[V:4]z8 |
[V:1]z4 z2E2 |
[V:2].F2.F2 z4 |
[V:3]A,>B,!beambr1!!trill!B,3/A,//B,// .C2.C2 |
[V:4]z8 |
[V:1]A4 G>=A!beambr1!!trill!A3/G//A// |
[V:2]z2F2 B,>C!beambr1!!trill!C3/B,//C// |
[V:3]z2D,2 G,2F,2 |
[V:4]z2B,,2 E,4 |
[V:1].B2.B2 z2A2 |
[V:2].B,2.B,2 z4 |
[V:3]F,>G,!beambr1!!trill!G,3/F,//G,// .A,2.A,2 |
[V:4]D,>=E,!beambr1!!trill!E,3/D,//E,// .F,2.F,2 |
[V:1]_d4 c>=d!beambr1!!trill!d3/c//d// |
[V:2]z2B2 E>F!beambr1!!trill!F3/E//F// |
[V:3]z2G,2 C2B,2 |
[V:4]z2E,2 A,4 |
[V:1].e2.e2 d2_d2 |
[V:2]E2F4 E2- |
[V:3]B,>C!beambr1!!trill!C3/B,//C// D>B,!beambr1!!trill!B,3/A,//B,// |
[V:4]G,>=A,!beambr1!!trill!A,3/G,//A,// B,>G,!beambr1!!trill!G,3/F,//G,// |
[V:1]c>=de>B A>FG3/A/ |
[V:2]E4 F>DE3/F/ |
[V:3]C2B,2 B,2B,2 |
[V:4]A,2G,2 D,2E,2 |
[V:1]G4 F2f2 |
[V:2]E4 D2z2 |
[V:3]B,4 z4 |
[V:4]B,,2B,2 B,,2z2 |
[V:1]B4- B^fge |
[V:2]z2B/A/G/A/ G2z2 |
[V:3]z2G/F/E/F/ E2z2 |
[V:4]z2D2 E2z2 |
[V:1]c6 =f2 |
[V:2]z2c/B/=A/B/ A2B2 |
[V:3]z2=A/G/F/G/ F2F2 |
[V:4]z2=E2 F2D2 |
[V:1]f8- |
[V:2]=A>=B!beambr1!!trill!B3/A//B// c2_B2 |
[V:3]E>F!beambr1!!trill!F3/E//F// G2F2 |
[V:4]C>D!beambr1!!trill!D3/C//D// E2D2 |
[V:1]f6 ed |
[V:2]=A>=B!beambr1!!trill!B3/A//B// c3B |
[V:3]E>F!beambr1!!trill!F3/E//F// G3A |
[V:4]C>D!beambr1!!trill!D3/C//D// E3F |
[V:1].c!trill!cde B2c3/B/ |
[V:2].cc=Bc D2E2 |
[V:3].GGFE F2=A,3/B,/ |
[V:4].EEDC F,4 |
[V:1]B4- B!trill!B_dc |
[V:2]D2B/c/B/A/ G4 |
[V:3]B,2G/A/G/F/ =E4 |
[V:4]B,,8- |
[V:1]B=A_Af AGeG |
[V:2]F4 E4 |
[V:3]F2D2 B,3C |
[V:4]B,,4- B,,3=A,, |
[V:1]G2F2 z2B2 |
[V:2]E2D2 z2B2 |
[V:3]B,4 z4 |
[V:4]B,,2B,2 B,,2z2 |
[V:1]e4 d>e!beambr1!!trill!e3/d//e// |
[V:2]G4 F>G!beambr1!!trill!G3/F//G// |
[V:3]z2B,2 A,2G,2 |
[V:4]z2E,,2 B,,4 |
[V:1].f2.f2 z2e2 |
[V:2]A2z2 z4 |
[V:3]C>D!beambr1!!trill!D3/C//D// .E2.E2 |
[V:4]A,,>B,,!beambr1!!trill!B,,3/A,,//B,,// .C,2.C,2 |
[V:1]a4 g>=a!beambr1!!trill!a3/g//a// |
[V:2]z2f2 B>c!beambr1!!trill!c3/B//c// |
[V:3]z2D2 G2F2 |
[V:4]z2B,,2 E,4 |
[V:1]b4 =a2_a2- |
[V:2]B2_d2 c2_c2 |
[V:3]F>G!beambr1!!trill!G3/F//G// =A2F2 |
[V:4]D,>=E,!beambr1!!trill!E,3/D,//E,// F,2D,2 |
[V:1]agfc' e2f3/e/ |
[V:2]B2=c2 G2A3/G/ |
[V:3]E6 D2 |
[V:4]E,2A,,2 B,,2B,,2 |
[V:1]e4 z2B2 |
[V:2]G/B/.e/.B/!beambr1!G/B/.A/.B/ .G/.B/.F/.B/!beambr1!.G/.B/.A/.B/ |
[V:3]E2.E.F .E.D.E.F |
[V:4]E,4 z4 |
[V:1]e4 d>e!beambr1!!trill!e3/d//e// |
[V:2]G/B/.e/.B/!beambr1!G/B/.G/.B/ .A/.B/.A/.B/!beambr1!.G/.B/.G/.B/ |
[V:3]E2E2 F2E2 |
[V:4]z8 |
[V:1].f2.f2 z2B2 |
[V:2]F/B/.G/.B/!beambr1!A/B/.G/.B/ .F/.B/.G/.B/!beambr1!.A/.B/.F/.B/ |
[V:3].D.E.F.E .D.E.F.D |
[V:4]z4 B,,2B,,2 |
[V:1]g4 f>g!beambr1!!trill!g3/f//g// |
[V:2]E/B/.e/.B/!beambr1!e/B/.e/.B/ E/B/.e/.B/!beambr1!E/B/.e/.B/ |
[V:3]_D8 |
[V:4]E,,8- |
[V:1].a2.a2 z2c'2 |
[V:2]E/A/.c/.A/!beambr1!c/A/.c/.A/ E/A/.c/.A/!beambr1!E/A/.c/.A/ |
[V:3]C8 |
[V:4]E,,8- |
[V:1]d3e/f/ e2.B.B |
[V:2]F/A/.d/.A/!beambr1!.F/.A/.F/.D/ E2.E.E |
[V:3]A,4 G,2.B,.B, |
[V:4]E,,6 .G,.G, |
[V:1].Bz.B.B .=Az._A.A |
[V:2].Dz._D.D .Cz._C.C |
[V:3].A,z.G,.G, ._G,z.F,.F, |
[V:4].F,z.=E,.E, ._E,z.D,.D, |
[V:1]AGFc E2F3/E/ |
[V:2]B,2=C2 G,2A,2 |
[V:3]E,6 D,2 |
[V:4]E,2A,,2 B,,2B,,2 |
[V:1]E2z2 FF!beambr1!!trill!F3/E//F// |
[V:2]G,/B,/.E/.B,/!beambr1!G,/B,/.E/.B,/ A,/B,/A,/B,/!beambr1!A,/B,/A,/B,/ |
[V:3]E,4 D,4 |
[V:4]E,,8- |
[V:1]B2GE FF!beambr1!F/E/F/G/ |
[V:2]G,/B,/.E/.B,/!beambr1!G,/B,/.E/.B,/ A,/B,/A,/B,/!beambr1!A,/B,/A,/B,/ |
[V:3]E,4 D,4 |
[V:4]E,,8- |
[V:1]E2z2 .F/.G/.A/.B/!beambr1!.c/.d/.e/.f/ |
[V:2]G,/B,/.E/.B,/!beambr1!G,/B,/.E/.B,/ A,/B,/A,/B,/!beambr1!A,/B,/A,/B,/ |
[V:3]E,4 D,4 |
[V:4]E,,8- |
[V:1]ge.B.G F/c/B/A/!beambr1!G/F/A/F/ |
[V:2]G,/B,/.E/.B,/!beambr1!G,/B,/.E/.B,/ A,/B,/A,/B,/!beambr1!A,/B,/A,/B,/ |
[V:3]E,4 D,4 |
[V:4]E,,8 |
[V:1]E2E2 E2z2 |]
[V:2]G,/B,/.E/.B,/!beambr1!G,/B,/.E/.B,/ .G,2z2 |]
[V:3]E,2G,2 E,2z2 |]
[V:4]E,,2E,,2 E,,2z2 |]

